svgs/sharp-regular/grate.svg

<svg xmlns="http://www.w3.org/2000/svg" viewBox="0 0 448 512"><!--! Font Awesome Pro 6.6.0 by @fontawesome - https://fontawesome.com License - https://fontawesome.com/license (Commercial License) Copyright 2024 Fonticons, Inc. --><path d="M24 32L0 32 0 56 0 256 0 456l0 24 24 0 104 0 96 0 96 0 104 0 24 0 0-24 0-200 0-200 0-24-24 0L320 32l-96 0-96 0L24 32zm80 48l0 152-56 0L48 80l56 0zM48 280l56 0 0 152-56 0 0-152zM152 432l0-152 48 0 0 152-48 0zm96 0l0-152 48 0 0 152-48 0zm96 0l0-152 56 0 0 152-56 0zm56-200l-56 0 0-152 56 0 0 152zM296 80l0 152-48 0 0-152 48 0zm-96 0l0 152-48 0 0-152 48 0z"/></svg>

<svg xmlns="http://www.w3.org/2000/svg" viewBox="0 0 448 512"><!--! Font Awesome Pro 6.4.2 by @fontawesome - https://fontawesome.com License - https://fontawesome.com/license (Commercial License) Copyright 2023 Fonticons, Inc. --><path d="M24 32H0V56 256 456v24H24 128h96 96H424h24V456 256 56 32H424 320 224 128 24zm80 48V232H48V80h56zM48 280h56V432H48V280zM152 432V280h48V432H152zm96 0V280h48V432H248zm96 0V280h56V432H344zm56-200H344V80h56V232zM296 80V232H248V80h48zm-96 0V232H152V80h48z"/></svg>
